X:1
T:Title
T:Tchaikovsky Violin Concerto in D (Excerpt)
T:Tchaikovsky
C:Composer
L:1/8
Q:1/4=80
M:none
K:D
V:1 treble nm="Violin" snm="Vln."
V:1
 !tenuto![=ce]/.G,/.E/.G/ ([ce]/.G,/)(.E/.G/ .A/.B/.c/.d/)({e=f)} (!>!e/c/e/g/) | %1
 ([Bd]/.G,/).G/.[^Ae]/ ([Bd]/D/E/)(.F/ .G/.=A/.B/.d/) .[^ce]/.A/.B/.c/ | %2
 .[d=f]/.D/.A/.d/ (!>![df]/=F/)(.G/.A/ .B/.c/.d/.e/)({fg)} (f/d/f/a/) | %3
 (!>![ce]/A,/).A/.[d=f]/ (!>![ce]/E/F/)(.^G/ .A/.B/.c/.d/) .[ce]/.d/.c/.e/ | %4
 .a/.[=FA]/.[FA]/.b/ =c'/A/.b/.a/ .g/.[G,E=c]/.b/.[G,Ec]/ .c'/.[G,Ec]/.a/.g/ | %5
 .[A=f]/.[A,DA]/.[A,DA]/.^g/ !>!a/A/.=g/.f/ .e/.[A,EA]/.^g/.[A,EA]/ .a/.[A,EA]/.f/.e/ | %6
 (d/4e/4=f/4e/4d/4=c/4B/4A/4) (B/4c/4d/4c/4B/4A/4G/4=F/4) .E/4.E/4.e/4.e/4.^G/4.G/4.B/4.B/4 .e/4.e/4.^g/4.g/4.b/4.b/4.e'/4.e'/4 | %7
 (d'/4e'/4=f'/4e'/4d'/4=c'/4b/4a/4) (b/4c'/4d'/4c'/4b/4a/4g/4=f/4) .E/4.E/4.e/4.e/4.B/4.B/4.^G/4.G/4 .E/4.E/4.F/4.F/4.G/4.G/4.B/4.B/4 | %8
 .[=c'e']/.G,/.E/.G/ (!>![=ce]/G,/)(.E/.G/ .A/.B/.c/.d/)({e'=f')} (!>!e'/c'/e'/g'/) | %9
 ([bd']/.D/).G/.[^Ae]/ ([Bd]/D/G/)(.B/ .d/.g/.b/.d'/) .[c'e']/.a/.b/.c'/ | %10
 .[=fd'=f']/.D/.A/.d/ (!>![df]/.=F/)(.G/.A/ .B/.c/.d/.e/)({fg)} (!>!f/d/f/a'/) | %11
 (e'/.A,/).A/.[d=f]/ ([ce]/E/F/)(.^G/ .A/.B/.c/.d/) .[ce]/.d/.c/.e/ | %12
 .a/.[=FA]/.[FA]/.b/ .=c'/.A/.b/.a/ .g/.[G,E=c]/.b/.[G,Ec]/ .c'/.[G,Ec]/.a/.g/ | %13
 .[A=f]/.[DA]/.[DA]/.^g/ .a/.A/.=g/.f/ .e/.[A,EA]/.^g/.[A,EA]/ .a/.[A,EA]/.f/.e/ | %14
 .^d/.F/.[db]/.F/ .[d=c']/.F/.[F=d]/.B,/ .[F^d]/.B,/([FA]/[GB]/ [A=c]/).B,/([CE]/[^DF]/ | %15
 [EG]/).G,/([E^A]/[FA]/ [GA]/).G,/(A/[Be]/ [ce]/).E/.[c^a]/.E/ .[ec']/.G/.[ge']/.A/ | %16
 .[f^d']/.B/.[^db]/.F/ .[d=c']/.F/.[Fc]/.B,/ .[Fd]/.B,/([FA]/[GB]/ [A=c]/)(.B,/[CE]/[^DF]/) | %17
 [EG]/.G,/([E^A]/[FA]/ [GA]/).G,/([Ae]/[Be]/ [ce]/).E/.[c^a]/.E/ .[ec']/.G/.[ge']/.B/ | %18
 .[ge']/.A/.[ca]/.E/ .[c_b]/.E/.[E=c]/.A,/ .[E^c]/.A,/([EG]/[=FA]/ [G_B]/).A,/([B,D]/[CE]/ | %19
 [D=F]/).A,/([DA]/[EA]/ [FA]/).D/(d/[de]/ [d=f]/).D/.[da]/.D/ .[fd']/.D/.[a=f']/.D/ | %20
 .[c'a']/.A/.[ca]/.E/ .[c_b]/.E/.[E=c]/.A,/ .[E^c]/.A,/([EG]/[=FA]/ [G_B]/).A,/([B,D]/[CE]/ | %21
 [=FA]/).A,/([DA]/[EA]/ [FA]/).D/(d/[de]/ [d=f]/).D/.[da]/.D/ .[fd']/.D/.[d=f']/.D/ | %22
 .[d=f']/.D/([DB]/[EB]/ [=FB]/).^G,/(d/[de]/ [d=f]/).D/.[db]/.D/ .[fd']/.D/.[df']/.D/ | %23
 .[d=f']/.D/([DB]/[EB]/ [=FB]/).G,/(d/[de]/ [d=f]/).D/.[db]/.D/ .[fd']/.D/.[df']/.D/ | %24
 .[d^f']/4.[df']/4.D/4.D/4.F/4.F/4.B/4.B/4 .d/4.d/4.f/4.f/4.b/4.b/4.d'/4.d'/4 .^g'/4.g'/4.D/4.D/4.^G/4.G/4.B/4.B/4 .d/4.d/4.^g/4.g/4.b/4.b/4.d'/4.d'/4 | %25
 .^g'/4.g'/4.D/4.D/4.^G/4.G/4.B/4.B/4 .d/4.d/4.^g/4.g/4.b/4.b/4.d'/4.d'/4 .g'/4.g'/4.G/4.G/4.B/4.B/4.=f/4.f/4 .g/4.g/4.b/4.b/4.=f'/4.f'/4.g'/4.g'/4 | %26
 .a' z z2 z4 |] %27

